X:1
T:Je lay aymé
T:Pierre Certon
T:Source : Second livre contenant 31 chansons eslevées---Paris---P.Attaignant---1535. Editor : André Vierendeels (16/12/17). Notes : Original clefs : C1, C2, C3, F3 Original note values have been halved Editorial accidentals above the staff Square brackets indicate ligatures
T:Je lay aymé
T:©
T:©
T:©
T:©
T:©
C:Pierre Certon
Z:©
%%score [ 1 2 3 4 ]
L:1/8
Q:1/4=120
M:2/2
K:F
V:1 treble nm="Soprano" snm="S"
V:2 treble nm="Alto" snm="A"
V:3 treble-8 nm="Tenor 1" snm="T 1"
V:4 treble-8 nm="Tenor 2" snm="T 2"
V:1
 B4 A2 G2 | d4 z4 | d4 c2 B2 | A8 | z8 | z2 d2 d2 c2 | B2 G2 A4- | A4 B4- | B2 A4 G2- | %9
w: Je lay ay-|mé,|je lay ay-|mé,||je lay ay-|mé et lay-|||
"^#" G2 F2 G4 | z2 F2 G4 | B4 A4- | A4 z2 G2 | G2 F2 G2 A2 | B2 c4 B2- | B2 A2 B2 G2 | %16
w: * me- ray,|le mien|a- my|_ à|qui tous- iours _|_ _ se-|* * ray, si|
 G2 G2 D2 G2 | F2 D2 F3 G | A2 B4 A2- | A2 G2 A4- | A4 z2 A2 | A2 A2 G4- | G2 B2 A2 F2- | %23
w: mort ne vient ou|moy ou luy sur-|pren- * *|* * dre,|_ en-|cor' ne puis|_ en mon es-|
 FG A2 B2 c2- | c2 B4 A2 | B2 B2 A2 G2 | d4 z4 | d4 c2 B2 | A8 | z8 | z2 d2 d2 c2 | B2 G2 A4- | %32
w: * * * prit com-|* pren- *|dre, a- prez la|mort,|a- prez la|mort,||a- prez la|mort coment ie|
 A4 B4- | B2 A4 G2- | G2 F2 G2 B2 | A2 G2 d4 | z4 d4 | c2 B2 A4- | A4 z4 | z4 z2 d2 | d2 c2 B2 G2 | %41
w: _ l'ou-|* bli- *|* * ray, a-|prez la mort,|a-|prez la mort,|_|a-|prez la mort, com-|
 A8 | B6 A2- | A2 G4 F2 | G8 |] %45
w: ment|je l'ou-|* bli- *|ray?|
V:2
 G4 F2 E2 | D2 D4 C2 | F3 D E4 | z2 D2 D2 C2 | B,2 G,2 A,2 A2 | B2 B2 A4 | z2 G2 G2 F2 | %7
w: Je lay ay-|mé, et l'ay-|* me- ray,|je l'ay ay-|mé et l'ay- *|* me- ray,|je lay ay-|
 E2 C2 D4- |"^b" D4 E4 | D4 D4 | z4 z2 C2 | D4 F4- | F4 E4 | z2 D2 D2 C2 |"^b" B,2 F3 D E2 | %15
w: mé et l'ay-|* me-|* ray,|le|mien a-|* my,|à qui tous-|iours _ _ _|
 F4 D4- | D4 z2 D2 | D2 D2 A,2 A2 | A2 G2 F2 E2- | E2 D4 C2 | D4 A,4 | A,2 C4 G,A, | B,CDE F4 | %23
w: se- ray,|_ si|mort ne vient ou|moy ou luy sur-|* pren- *|dre, en-|cor' ne puis _|_ _ _ _ _|
"^b" z2 F2 E2 C2 |"^b" D2 E2 F4 | D2 G2 F2 E2 | D2 D2 D2 C2 | F3 D E4 | z2 D2 D2 C2 | %29
w: en mon es-|prit com- pren-|dre, a- prez la|mort, com- ment je|l'ou- bli- ray?|A- prez la|
 B,2 G,2 A,2 A2 | B2 B2 A4 | z2 G2 G2 F2 | E2 C2 D4- |"^b" D2 D2 E2 E2 | D4 z2 G2 | F2 E2 D2 D2 | %36
w: mort com- ment je|l'ou- bli- ray?|A- prez la|mort, com- ment|_ je l'ou- bli-|ray? A-|prez la mort, com-|
 D2 C2 F3 D | E4 z2 D2 | D2 C2 B,2 G,2 | A,2 A2 B2 B2 | A4 z2 G2 | G2 F2 E2 C2 | D6 D2 | %43
w: ment je l'ou- bli-|ray? A-|prez la mort, com-|ment je l'ou- bli-|ray. A-|prez la mort com-|ment je|
"^b""^b" E2 E2 D4 |"^#" D8 |] %45
w: l'ou- bli- *|ray?|
V:3
 z8 | B4 A2 G2 | d4 z2 g2 | g2 f2 e2 c2 | d3 e f2 e2 | f2 g2 e4 | d4 z2 d2 | d2 c2 B4 | %8
w: |Je lay ay-|mé, je|lay ay- mé et|l'ay- * * *|* * me-|ray,, je|lay ay- mé|
 G2 A2 B2 c2 | A4 G2 G2 | A4 c4 | B2 F4 A2 | A2 c2 c2 GA | Bcdc de f2- | fe c2 d2 cB | c4 B4- | %16
w: et l'ay- * *|me- ray, le|mien a-|my à qui|tous- iours _ _ _|_ _ _ _ _ _ _||se- ray,|
 B8 | z2 d2 d2 d2 | A2 d2 c2 A2 | d2 d2 e4 | f2 d2 d2 d2 | c4 e4 | d2 B2 c2 d2- |"^b" d2 c2 B2 e2 | %24
w: _|si mort ne|vient ou moy ou|luy sur- pren-|dre, en- cor' ne|puis en|mon es- prit com-||
 d2 cB c4 | B4 z4 | B4 A2 G2 | d4 z2 g2 | g2 f2 e2 c2 | d3 e f2 e2 | f2 g2 e4 | d4 z2 d2 | %32
w: * * * pren-|dre,|a- prez la|mort, a-|prez la mort, com-|ment je l'ou- bli-||ray? A-|
 d2 c2 B4 | G2 A2 B2 c2 |"^b" A4 G4 | z4 B4 | A2 G2 d4 | z2 g2 g2 f2 | e2 c2 d3 e | f2 e2 f2 g2 | %40
w: prez la mort,|com- ment je l'ou-|bli- ray?|A-|prez la mort,|a- prez la|mort, com- ment je|l'ou- bli- * *|
 e4 d4 | z2 d2 d2 c2 | B4 G2 A2 | B2 c2 A4 | G8 |] %45
w: * ray?|A- prez la|mort, com- ment|je l'ou- bli-|ray?|
V:4
 z8 | G4 F2 E2 | D2 B2 A2 G2 | d4 A4 | z2 d2 d2 c2 | B2 G2 A4 | B4 A4- | A4 z2 G2- | %8
w: |Je lay ay-|mé, et l'ay- *|me- ray,|je lay ay-|mé et l'ay-|me- ray,|_ et|
"^b" G2 F2 E2 C2 | D4 z2 G,2 | D4 C4 | G,2 B,2 D2 D2 | F2 F2 CDEF | GA B3 A F2 | G2 A2 B2 G2 | %15
w: _ _ l'ay- me-|ray le|mien a-|my à qui tous-|iuors se- ray, _ _ _|_ _ _ _ _|à qui tous- iours|
 F4 B,4 | z2 G2 G2 G2 | D2 G2 F2 D2 | F2 G2 A4 | B4 A4 | z2 D4 D2 | F4 CDEF | G4 F2 B2 | %23
w: se- ray,|si mort ne|vient ou moy ou|luy sur- pren-|* dre,|en- cor'|ne puis _ _ _|_ en mon|
 A2 F2 G2 A2 | B2 G2 F4 | B,4 z4 | G4 F2 E2 | D2 B2 A2 G2 | d2 d2 A4 | z2 d2 d2 c2 | B2 G2 A2 A2 | %31
w: es- prit com- pren-||dre,|a- prez la|mort, com- ment je|l'ou- bli- ray?|A- prez la|mort, com- ment je|
 B2 B2 A4- | A4 z2 G2 | G2 F2 _E2 C2 | D4 G4 | z4 G4 | F2 E2 D2 B2 | A2 G2 d2 d2 | A4 z2 d2 | %39
w: l'ou- bli- ray?|_ Com-|ment je l'ou- bli-|* ray?|A-|prez la mort, com-|ment je l'ou- bli-|ray? A-|
 d2 c2 B2 G2 | A2 A2 B2 B2 | A8 | z2 G2 G2 F2 | _E2 C2 D4 | G8 |] %45
w: prez la mort, com-|ment je l'ou- bli-|ray?|Com- ment je|l'ou- * bli-|ray?|

